X: 74
T:Rose Tree
M:2/4
L:1/8
Q:132
C:trad
S:AB
R:March
K:D
f/2e/2|"D"dB AF|A&gt;B AB|d2 ed/e/|fe "A7"ef/e/|dB AF|A&gt;B AB|d2 ed/e/|fd d2
:||!
"D"fe fg|a2 gf|"Em"eb ba|be ef/e/|dB AF|A&gt;B AB|"Bm"d2 "A"ed/e/|"D"fd d2:
||

